; generated by PrusaSlicer 2.9.4 on 2026-03-31 at 20:23:55 UTC


;
;
; 

; external perimeters extrusion width = 0.45mm
; perimeters extrusion width = 0.45mm
; infill extrusion width = 0.45mm
; solid infill extrusion width = 0.45mm
; top infill extrusion width = 0.40mm
; first layer extrusion width = 0.42mm

M73 P0 R170
M73 Q0 S171
M201 X1000 Y1000 Z200 E5000 ; sets maximum accelerations, mm/sec^2
M203 X200 Y200 Z12 E120 ; sets maximum feedrates, mm / sec
M204 S1250 T1250 ; sets acceleration (S) and retract acceleration (R), mm/sec^2
M205 X8.00 Y8.00 Z0.40 E4.50 ; sets the jerk limits, mm/sec
M205 S0 T0 ; sets the minimum extruding and travel feed rate, mm/sec

; printing object doorbell-upper-top.stl id:0 copy 0
; stop printing object doorbell-upper-top.stl id:0 copy 0

;TYPE:Custom
M862.3 P "MK3S" ; printer model check
M862.1 P0.4 ; nozzle diameter check
M115 U3.14.1 ; tell printer latest fw version
G90 ; use absolute coordinates
M83 ; extruder relative mode
M104 S215 ; set extruder temp
M140 S60 ; set bed temp
M190 S60 ; wait for bed temp
M109 S215 ; wait for extruder temp
G28 W ; home all without mesh bed level
G80 X69.6229 Y40.1229 W110.754 H129.754 ; mesh bed levelling

G1 Z0.2 F720
G1 Y-3 F1000 ; go outside print area
G92 E0
G1 X60 E9 F1000 ; intro line
G1 X100 E12.5 F1000 ; intro line

G92 E0
M221 S95

; Don't change E values below. Excessive value can damage the printer.
M907 E430 ; set extruder motor current
G21 ; set units to millimeters
G90 ; use absolute coordinates
M83 ; use relative distances for extrusion

M900 K0.05 ; Filament gcode LA 1.5
M900 K30 ; Filament gcode LA 1.0




M107
;LAYER_CHANGE
;Z:0.2
;HEIGHT:0.2
G1 E-.8 F2100
G1 Z.6 F720
G1 X70.202 Y41.252 F10800
G1 Z.2 F720
G1 E.8 F2100
M204 S800
;TYPE:Skirt/Brim
;WIDTH:0.42
G1 F1200
G1 X71.235 Y40.449 E.04102
G1 X72 Y40.311 E.02437
G1 X174.027 Y40.312 E3.19898
G1 X175.234 Y40.436 E.03804
G1 X176.343 Y40.772 E.03633
G1 X177.416 Y41.34 E.03807
G1 X178.286 Y42.037 E.03495
G1 X179.044 Y42.915 E.03637
G1 X179.647 Y43.967 E.03802
G1 X180.009 Y45.023 E.035
G1 X180.182 Y46.223 E.03801
G1 X180.188 Y163.527 E3.67798
G1 X180.102 Y164.532 E.03163
G1 X179.836 Y165.559 E.03326
G1 X179.398 Y166.527 E.03331
G1 X178.801 Y167.405 E.03329
G1 X177.905 Y168.301 E.03973
G1 X176.758 Y169.04 E.04278
G1 X175.478 Y169.509 E.04274
G1 X174.125 Y169.687 E.04279
G1 X72 Y169.689 E3.20206
G1 X70.752 Y169.298 E.04101
G1 X69.949 Y168.265 E.04102
G1 X69.811 Y167.5 E.02437
G1 X69.811 Y42.5 E3.91929
G1 X70.184 Y41.309 E.03913
M73 Q0 S170
M204 S1000
;WIPE_START
G1 F8640
G1 X70.202 Y41.252 E-.0138
G1 X71.235 Y40.449 E-.30211
G1 X72 Y40.311 E-.17949
G1 X73.319 Y40.311 E-.3046
;WIPE_END
G1 Z.6 F720
; printing object doorbell-upper-top.stl id:0 copy 0
G1 X131.494 Y113.993 F10800
G1 Z.2 F720
G1 E.8 F2100
M204 S800
;TYPE:Perimeter
;WIDTH:0.419999
G1 F1200
G1 X131.95 Y113.181 E.0292
G1 X132.286 Y112.66 E.01944
G1 X133.025 Y111.697 E.03806
G1 X133.373 Y111.29 E.01679
G1 X133.904 Y110.743 E.0239
G1 X134.549 Y110.151 E.02745
G1 X135.018 Y109.768 E.01899
G1 X135.626 Y109.316 E.02375
G1 X136.319 Y108.845 E.02627
G1 X136.999 Y108.446 E.02472
G1 X137.938 Y107.967 E.03305
G1 X138.953 Y107.543 E.03449
G1 X139.644 Y107.307 E.02289
G1 X140.542 Y107.051 E.02928
G1 X141.727 Y106.803 E.03796
G1 X142.741 Y106.659 E.03211
G1 X143.676 Y106.585 E.02941
G1 X144.353 Y106.566 E.02124
G1 X145.463 Y106.587 E.03481
G1 X146.711 Y106.679 E.03924
G1 X147.867 Y106.863 E.0367
G1 X148.82 Y107.091 E.03072
G1 X149.777 Y107.376 E.03131
G1 X150.505 Y107.65 E.02439
G1 X151.214 Y107.963 E.0243
G1 X151.904 Y108.316 E.0243
G1 X152.826 Y108.874 E.03379
G1 X153.404 Y109.275 E.02206
G1 X154.339 Y110.022 E.03752
G1 X155.041 Y110.664 E.02983
G1 X155.908 Y111.586 E.03968
G1 X156.406 Y112.187 E.02447
G1 X156.905 Y112.852 E.02607
G1 X157.372 Y113.543 E.02615
G1 X157.832 Y114.304 E.02788
G1 X158.391 Y115.373 E.03782
G1 X158.749 Y116.162 E.02717
G1 X159.068 Y116.966 E.02712
G1 X159.363 Y117.818 E.02827
G1 X159.722 Y119.071 E.04087
G1 X159.93 Y119.968 E.02887
G1 X160.104 Y120.878 E.02905
G1 X160.249 Y121.832 E.03026
G1 X160.398 Y123.246 E.04458
G1 X160.462 Y124.245 E.03139
G1 X160.494 Y125.277 E.03237
G1 X160.483 Y126.815 E.04822
G1 X160.437 Y127.862 E.03286
G1 X160.311 Y129.346 E.0467
G1 X160.12 Y130.754 E.04455
G1 X159.95 Y131.686 E.0297
G1 X159.751 Y132.586 E.0289
G1 X159.514 Y133.484 E.02912
G1 X159.117 Y134.717 E.04061
G1 X158.804 Y135.539 E.02758
G1 X158.461 Y136.327 E.02695
G1 X158.074 Y137.113 E.02747
G1 X157.469 Y138.172 E.03824
G1 X157.008 Y138.877 E.02641
G1 X156.502 Y139.57 E.0269
G1 X155.716 Y140.512 E.03847
G1 X154.899 Y141.348 E.03665
G1 X154.298 Y141.887 E.02531
G1 X153.656 Y142.4 E.02577
G1 X152.725 Y143.038 E.03539
G1 X152.01 Y143.458 E.026
G1 X150.96 Y143.972 E.03665
G1 X149.893 Y144.385 E.03587
G1 X149.09 Y144.636 E.02638
G1 X147.952 Y144.904 E.03666
G1 X147.101 Y145.049 E.02707
G1 X145.889 Y145.176 E.03821
G1 X144.997 Y145.217 E.028
G1 X143.929 Y145.211 E.03349
G1 X142.692 Y145.126 E.03888
G1 X141.523 Y144.958 E.03703
G1 X140.602 Y144.765 E.0295
G1 X139.499 Y144.451 E.03596
G1 X138.656 Y144.148 E.02809
G1 X137.845 Y143.799 E.02768
G1 X136.997 Y143.36 E.02994
G1 X135.8 Y142.633 E.04391
G1 X135.104 Y142.127 E.02698
G1 X134.675 Y141.776 E.01738
G1 X133.937 Y141.112 E.03113
G1 X133.33 Y140.487 E.02732
G1 X132.95 Y140.043 E.01832
G1 X132.579 Y139.555 E.01922
G1 X132.114 Y138.876 E.0258
G1 X131.772 Y138.307 E.02082
G1 X131.412 Y137.632 E.02399
G1 X131.139 Y138.29 E.02234
G1 X130.862 Y138.878 E.02038
G1 X130.595 Y139.37 E.01755
G1 X130.158 Y140.108 E.02689
G1 X129.858 Y140.574 E.01738
G1 X129.326 Y141.288 E.02792
G1 X128.928 Y141.752 E.01917
G1 X127.99 Y142.728 E.04244
G1 X127.318 Y143.313 E.02794
G1 X126.806 Y143.711 E.02033
G1 X126.286 Y144.079 E.01997
G1 X125.487 Y144.579 E.02955
G1 X124.646 Y145.03 E.02992
G1 X124.057 Y145.304 E.02037
G1 X123.463 Y145.549 E.02015
G1 X122.555 Y145.866 E.03015
G1 X121.608 Y146.131 E.03083
G1 X120.95 Y146.279 E.02115
G1 X120.288 Y146.4 E.0211
G1 X119.252 Y146.539 E.03277
G1 X117.861 Y146.634 E.04372
G1 X116.637 Y146.641 E.03838
G1 X115.173 Y146.568 E.04596
G1 X113.792 Y146.41 E.04358
G1 X112.842 Y146.248 E.03022
G1 X111.558 Y145.945 E.04136
G1 X110.666 Y145.677 E.0292
G1 X109.476 Y145.229 E.03987
G1 X108.675 Y144.865 E.02759
G1 X107.883 Y144.45 E.02804
G1 X106.795 Y143.776 E.04013
G1 X105.796 Y143.032 E.03906
G1 X105.133 Y142.463 E.02739
G1 X104.509 Y141.862 E.02716
G1 X103.892 Y141.2 E.02837
G1 X103.065 Y140.176 E.04127
G1 X102.316 Y139.071 E.04186
G1 X101.647 Y137.892 E.0425
G1 X101.06 Y136.642 E.0433
G1 X100.554 Y135.321 E.04435
G1 X100.138 Y133.959 E.04465
G1 X99.894 Y132.983 E.03154
G1 X99.684 Y131.965 E.03259
G1 X99.443 Y130.423 E.04894
G1 X99.324 Y129.347 E.03394
G1 X99.239 Y128.242 E.03475
G1 X99.176 Y126.54 E.0534
G1 X99.176 Y125.381 E.03634
G1 X99.209 Y124.26 E.03516
G1 X99.275 Y123.168 E.0343
G1 X99.375 Y122.098 E.0337
G1 X99.584 Y120.582 E.04798
G1 X99.768 Y119.578 E.032
G1 X99.99 Y118.587 E.03184
G1 X100.373 Y117.221 E.04448
G1 X100.679 Y116.313 E.03004
G1 X101.027 Y115.418 E.03011
G1 X101.599 Y114.171 E.04302
G1 X102.236 Y113.018 E.0413
G1 X102.759 Y112.214 E.03007
G1 X103.775 Y110.849 E.05335
G1 X104.686 Y109.846 E.04248
G1 X105.612 Y108.991 E.03952
G1 X106.701 Y108.15 E.04314
G1 X107.721 Y107.496 E.03799
G1 X108.312 Y107.182 E.02098
G1 X108.873 Y106.888 E.01986
G1 X110.087 Y106.375 E.04132
G1 X111.362 Y105.957 E.04207
G1 X112.695 Y105.633 E.04301
G1 X114.084 Y105.402 E.04415
G1 X115.53 Y105.264 E.04554
G1 X117.004 Y105.217 E.04624
G1 X117.756 Y105.228 E.02358
G1 X118.46 Y105.266 E.02211
G1 X119.151 Y105.328 E.02175
G1 X119.831 Y105.416 E.0215
G1 X120.498 Y105.529 E.02121
G1 X121.796 Y105.833 E.0418
G1 X122.426 Y106.024 E.02064
G1 X122.952 Y106.208 E.01747
G1 X123.648 Y106.484 E.02348
G1 X124.121 Y106.699 E.01629
G1 X124.764 Y107.021 E.02255
G1 X125.377 Y107.368 E.02209
G1 X125.922 Y107.712 E.02021
G1 X126.459 Y108.086 E.02052
G1 X126.978 Y108.483 E.02049
G1 X127.479 Y108.903 E.0205
G1 X128.283 Y109.66 E.03462
G1 X128.926 Y110.353 E.02964
G1 X129.447 Y110.978 E.02551
G1 X129.82 Y111.481 E.01963
G1 X130.17 Y111.999 E.0196
G1 X130.491 Y112.523 E.01927
G1 X130.798 Y113.078 E.01989
G1 X131.075 Y113.639 E.01962
G1 X131.345 Y114.257 E.02115
G1 X131.464 Y114.045 E.00762
M204 S1000
;WIPE_START
G1 F8640
G1 X131.494 Y113.993 E-.01386
G1 X131.95 Y113.181 E-.21503
G1 X132.286 Y112.66 E-.14315
G1 X133.025 Y111.697 E-.28029
G1 X133.373 Y111.29 E-.12365
G1 X133.445 Y111.215 E-.02402
;WIPE_END
G1 Z.6 F720
G1 X131.321 Y115.26 F10800
G1 Z.2 F720
G1 E.8 F2100
M204 S800
G1 F1200
G1 X131.491 Y114.823 E.0147
G1 X131.731 Y114.326 E.0173
G1 X132.267 Y113.385 E.03396
G1 X132.603 Y112.864 E.01944
G1 X132.967 Y112.373 E.01916
G1 X133.659 Y111.535 E.03408
G1 X134.173 Y111.007 E.0231
G1 X134.801 Y110.431 E.02672
G1 X135.252 Y110.064 E.01823
G1 X135.838 Y109.628 E.0229
G1 X136.531 Y109.157 E.02627
G1 X137.189 Y108.772 E.0239
G1 X138.019 Y108.345 E.02927
G1 X138.761 Y108.032 E.02525
G1 X139.765 Y107.665 E.03352
G1 X140.641 Y107.415 E.02856
G1 X141.78 Y107.177 E.03648
G1 X142.794 Y107.033 E.03211
G1 X143.705 Y106.961 E.02865
G1 X144.362 Y106.943 E.02061
G1 X145.45 Y106.964 E.03412
G1 X146.667 Y107.054 E.03826
G1 X147.808 Y107.236 E.03623
G1 X148.731 Y107.457 E.02976
G1 X149.664 Y107.736 E.03053
G1 X150.372 Y108.002 E.02371
G1 X151.061 Y108.308 E.02364
G1 X151.731 Y108.652 E.02361
G1 X152.63 Y109.197 E.03296
G1 X153.186 Y109.583 E.02122
G1 X154.1 Y110.314 E.0367
G1 X154.783 Y110.939 E.02903
G1 X155.278 Y111.463 E.0226
G1 X156.116 Y112.428 E.04007
G1 X156.604 Y113.078 E.02548
G1 X157.06 Y113.754 E.02557
G1 X157.504 Y114.489 E.02692
G1 X158.057 Y115.548 E.03746
G1 X158.405 Y116.317 E.02647
G1 X158.718 Y117.105 E.02658
G1 X159.004 Y117.932 E.02744
G1 X159.359 Y119.175 E.04053
G1 X159.563 Y120.053 E.02826
G1 X159.734 Y120.948 E.02857
G1 X159.875 Y121.88 E.02955
G1 X160.023 Y123.286 E.04433
G1 X160.085 Y124.269 E.03088
G1 X160.117 Y125.281 E.03175
G1 X160.106 Y126.812 E.048
G1 X160.06 Y127.838 E.0322
G1 X159.936 Y129.305 E.04616
G1 X159.746 Y130.703 E.04424
G1 X159.579 Y131.618 E.02916
G1 X159.383 Y132.504 E.02845
G1 X159.152 Y133.379 E.02837
G1 X158.758 Y134.602 E.04029
G1 X158.452 Y135.404 E.02691
G1 X158.115 Y136.176 E.02641
G1 X157.74 Y136.937 E.0266
G1 X157.142 Y137.984 E.03781
G1 X156.692 Y138.67 E.02572
G1 X156.205 Y139.338 E.02592
G1 X155.436 Y140.259 E.03762
G1 X154.629 Y141.084 E.03618
G1 X154.047 Y141.605 E.02449
G1 X153.431 Y142.096 E.0247
G1 X152.512 Y142.727 E.03495
G1 X151.831 Y143.125 E.02473
G1 X150.808 Y143.626 E.03572
G1 X149.757 Y144.034 E.03535
G1 X148.99 Y144.272 E.02518
G1 X147.865 Y144.537 E.03624
G1 X147.049 Y144.675 E.02595
G1 X145.85 Y144.801 E.0378
G1 X144.989 Y144.84 E.02702
G1 X143.943 Y144.834 E.0328
G1 X142.732 Y144.751 E.03806
G1 X141.576 Y144.585 E.03662
G1 X140.692 Y144.399 E.02832
G1 X139.602 Y144.088 E.03554
G1 X138.785 Y143.794 E.02722
G1 X137.995 Y143.453 E.02698
G1 X137.171 Y143.026 E.0291
G1 X136.001 Y142.313 E.04296
G1 X135.326 Y141.823 E.02615
G1 X134.916 Y141.486 E.01664
G1 X134.197 Y140.839 E.03033
G1 X133.605 Y140.23 E.02663
G1 X133.237 Y139.799 E.01777
G1 X132.88 Y139.327 E.01856
G1 X132.43 Y138.67 E.02497
G1 X131.849 Y137.67 E.03626
G1 X131.597 Y137.146 E.01823
G1 X131.371 Y136.582 E.01905
G1 X131.2 Y137.116 E.01758
G1 X130.791 Y138.144 E.03469
G1 X130.521 Y138.716 E.01983
G1 X129.841 Y139.904 E.04292
G1 X129.554 Y140.35 E.01663
G1 X129.024 Y141.062 E.02783
G1 X128.643 Y141.506 E.01834
G1 X128.079 Y142.107 E.02584
G1 X127.5 Y142.655 E.025
G1 X127.07 Y143.028 E.01785
G1 X126.575 Y143.413 E.01966
G1 X126.068 Y143.771 E.01946
G1 X125.287 Y144.259 E.02887
G1 X124.468 Y144.697 E.02912
G1 X123.898 Y144.962 E.01971
G1 X123.319 Y145.2 E.01963
G1 X122.431 Y145.51 E.02949
G1 X121.507 Y145.768 E.03008
G1 X120.867 Y145.911 E.02056
G1 X120.221 Y146.029 E.02059
G1 X119.214 Y146.164 E.03186
G1 X117.847 Y146.257 E.04296
G1 X116.645 Y146.264 E.03769
G1 X115.204 Y146.192 E.04524
G1 X113.835 Y146.035 E.04321
G1 X112.917 Y145.878 E.0292
G1 X111.644 Y145.578 E.04101
G1 X110.786 Y145.319 E.0281
G1 X109.609 Y144.876 E.03943
G1 X108.831 Y144.522 E.0268
G1 X108.07 Y144.123 E.02694
G1 X107.007 Y143.464 E.03921
G1 X106.022 Y142.729 E.03853
G1 X105.379 Y142.177 E.02657
G1 X104.771 Y141.591 E.02648
G1 X104.177 Y140.953 E.02733
G1 X103.369 Y139.951 E.04036
G1 X102.636 Y138.872 E.0409
G1 X101.982 Y137.719 E.04156
G1 X101.408 Y136.494 E.04242
G1 X100.911 Y135.198 E.04352
G1 X100.498 Y133.849 E.04423
G1 X100.26 Y132.892 E.03092
G1 X100.055 Y131.897 E.03185
G1 X99.817 Y130.373 E.04836
G1 X99.699 Y129.312 E.03347
G1 X99.616 Y128.221 E.03431
G1 X99.553 Y126.533 E.05296
G1 X99.553 Y125.386 E.03596
G1 X99.586 Y124.277 E.03479
G1 X99.652 Y123.197 E.03393
G1 X99.75 Y122.141 E.03325
G1 X99.957 Y120.634 E.04769
G1 X100.139 Y119.647 E.03147
G1 X100.356 Y118.679 E.0311
G1 X100.736 Y117.322 E.04418
G1 X101.036 Y116.434 E.02939
G1 X101.374 Y115.565 E.02924
G1 X101.936 Y114.341 E.04223
G1 X102.566 Y113.2 E.04087
G1 X103.075 Y112.421 E.02918
G1 X104.073 Y111.08 E.05241
G1 X104.953 Y110.113 E.04099
G1 X105.868 Y109.268 E.03905
G1 X106.518 Y108.763 E.02581
G1 X107.473 Y108.102 E.03642
G1 X107.924 Y107.814 E.01678
G1 X108.487 Y107.516 E.01997
G1 X109.048 Y107.222 E.01986
G1 X110.233 Y106.723 E.04031
G1 X111.484 Y106.314 E.04127
G1 X112.783 Y105.999 E.04191
G1 X114.146 Y105.774 E.04331
G1 X115.565 Y105.639 E.04469
G1 X117.016 Y105.594 E.04552
G1 X117.75 Y105.605 E.02302
G1 X118.44 Y105.642 E.02167
G1 X119.117 Y105.703 E.02131
G1 X119.782 Y105.79 E.02103
G1 X120.435 Y105.901 E.02077
G1 X121.702 Y106.198 E.0408
G1 X122.317 Y106.385 E.02015
G1 X122.826 Y106.564 E.01692
G1 X123.506 Y106.833 E.02293
G1 X124.592 Y107.357 E.03781
G1 X125.19 Y107.695 E.02154
G1 X125.72 Y108.03 E.01966
G1 X126.243 Y108.395 E.02
G1 X126.748 Y108.782 E.01995
G1 X127.237 Y109.191 E.01999
G1 X127.703 Y109.616 E.01978
G1 X128.158 Y110.067 E.02009
G1 X128.647 Y110.606 E.02282
G1 X129.154 Y111.215 E.02485
G1 X129.517 Y111.705 E.01912
G1 X129.857 Y112.209 E.01906
G1 X130.169 Y112.72 E.01877
G1 X130.467 Y113.26 E.01934
G1 X130.737 Y113.806 E.0191
G1 X130.959 Y114.312 E.01733
G1 X131.152 Y114.809 E.01672
G1 X131.3 Y115.294 E.0159
M204 S1000
;WIPE_START
G1 F8640
G1 X131.321 Y115.26 E-.00923
G1 X131.491 Y114.823 E-.10827
G1 X131.731 Y114.326 E-.12744
G1 X132.267 Y113.385 E-.25006
G1 X132.603 Y112.864 E-.14315
G1 X132.967 Y112.373 E-.14113
G1 X133.024 Y112.304 E-.02072
;WIPE_END
G1 Z.6 F720
G1 X131.238 Y117.21 F10800
G1 Z.2 F720
G1 E.8 F2100
M204 S800
;TYPE:External perimeter
;WIDTH:0.427024
G1 F1200
G1 X131.47 Y116.401 E.02688
;WIDTH:0.43709
G1 X131.506 Y116.021 E.01251
G1 X131.625 Y115.521 E.01685
;WIDTH:0.419999
G1 X131.825 Y115 E.0175
G1 X132.045 Y114.541 E.01596
G1 X132.303 Y114.069 E.01687
G1 X132.922 Y113.065 E.03698
G1 X133.269 Y112.598 E.01824
G1 X133.946 Y111.78 E.03329
G1 X134.443 Y111.27 E.02233
G1 X135.053 Y110.712 E.02592
G1 X135.485 Y110.36 E.01747
G1 X136.05 Y109.94 E.02207
G1 X136.743 Y109.469 E.02627
G1 X137.379 Y109.098 E.02309
G1 X138.189 Y108.682 E.02855
G1 X138.906 Y108.38 E.02439
G1 X139.885 Y108.022 E.03268
G1 X140.74 Y107.779 E.02787
G1 X141.833 Y107.55 E.03501
G1 X142.847 Y107.406 E.03211
G1 X143.734 Y107.337 E.0279
G1 X144.372 Y107.32 E.02001
G1 X145.437 Y107.341 E.0334
G1 X146.622 Y107.429 E.03726
G1 X147.748 Y107.608 E.03575
G1 X148.642 Y107.824 E.02884
G1 X149.55 Y108.095 E.02971
G1 X150.238 Y108.355 E.02306
G1 X150.908 Y108.652 E.02298
G1 X151.559 Y108.987 E.02296
G1 X152.434 Y109.519 E.03211
G1 X152.968 Y109.89 E.02039
G1 X153.861 Y110.606 E.03589
G1 X154.526 Y111.214 E.02825
G1 X155.003 Y111.721 E.02183
G1 X155.826 Y112.669 E.03936
G1 X156.302 Y113.304 E.02488
G1 X156.747 Y113.964 E.02496
G1 X157.175 Y114.674 E.02599
G1 X157.723 Y115.723 E.03711
G1 X158.061 Y116.472 E.02576
G1 X158.367 Y117.244 E.02604
G1 X158.644 Y118.045 E.02657
G1 X158.997 Y119.279 E.04024
G1 X159.196 Y120.138 E.02765
G1 X159.363 Y121.019 E.02811
G1 X159.501 Y121.928 E.02883
G1 X159.648 Y123.325 E.04404
