; generated by PrusaSlicer 2.9.4 on 2026-03-31 at 18:44:14 UTC


;
;

;
;

;
;

;
;
; 

; external perimeters extrusion width = 0.45mm
; perimeters extrusion width = 0.45mm
; infill extrusion width = 0.45mm
; solid infill extrusion width = 0.45mm
; top infill extrusion width = 0.40mm
; support material extrusion width = 0.40mm
; first layer extrusion width = 0.50mm

; external perimeters extrusion width = 0.45mm
; perimeters extrusion width = 0.45mm
; infill extrusion width = 0.45mm
; solid infill extrusion width = 0.45mm
; top infill extrusion width = 0.40mm
; support material extrusion width = 0.40mm
; first layer extrusion width = 0.50mm

M73 P0 R200
M73 Q0 S204
M201 X7000 Y7000 Z200 E2500 ; sets maximum accelerations, mm/sec^2
M203 X400 Y400 Z12 E100 ; sets maximum feedrates, mm / sec
M204 P4000 R1200 T5000 ; sets acceleration (P, T) and retract acceleration (R), mm/sec^2
M205 X8.00 Y8.00 Z2.00 E10.00 ; sets the jerk limits, mm/sec
M205 S0 T0 ; sets the minimum extruding and travel feed rate, mm/sec

M486 S0
M486 Adoorbell-upper.stl
M486 S-1
M486 S1
M486 Adoorbell-lower.stl
M486 S-1

;TYPE:Custom
M17 ; enable steppers
M862.3 P "XL" ; printer model check
M862.5 P2 ; g-code level check
M862.6 P"Input shaper" ; FW feature check
M115 U6.4.0+11974
G90 ; use absolute coordinates
M83 ; extruder relative mode
; set print area
M555 X67.5 Y74.6 W225 H256
; inform about nozzle diameter
M862.1 T0 P0.4 A0 F0





; turn off unused heaters

M104 T1 S0
M104 T2 S0
M104 T3 S0
M104 T4 S0

M217 Z2 ; set toolchange z hop to 2mm, or zhop variable from slicer if higher
; set bed and extruder temp for MBL
M140 S60 ; set bed temp
M104 T0 S170 ; set temp

; Home XY
G28 XY

; try picking tools used in print
G1 F24000





; select tool that will be used to home & MBL
T0 S1 L0 D0

M109 T0 S170 ; wait for temp

; home Z with MBL tool
M84 E ; turn off E motor
G28 Z
G0 Z5 ; add Z clearance

M104 T0 S70 ; set idle temp
M190 S60 ; wait for bed temp

G29 G ; absorb heat

M109 T0 S170 ; wait for temp

; move to the nozzle cleanup area
G1 X99.5 Y67.6 Z5 F24000
M302 S155 ; lower cold extrusion limit to 155C
G1 E-2 F2400 ; retraction for nozzle cleanup
; nozzle cleanup
M84 E ; turn off E motor
G29 P9 X67.5 Y67.6 W32 H7
G0 Z5 F480 ; move away in Z
M107 ; turn off the fan
; MBL
M84 E ; turn off E motor
G29 P1 ; invalidate mbl & probe print area
G29 P1 X30 Y0 W50 H20 C ; probe near purge place
G29 P3.2 ; interpolate mbl probes
G29 P3.13 ; extrapolate mbl outside probe area
G29 A ; activate mbl
G1 Z10 F720 ; move away in Z
G1 F24000
P0 S1 L1 D0; park the tool
; set extruder temp
M104 T0 S230









;
; purge initial tool
;
G1 F24000
P0 S1 L2 D0; park the tool
M109 T0 S230
T0 S1 L0 D0; pick the tool
G92 E0 ; reset extruder position

G0 X30 Y-7 Z10 F24000 ; move close to the sheet's edge
G0 E30 X40 Z0.2 F170 ; purge while moving towards the sheet
G0 X70 E9 F800 ; continue purging and wipe the nozzle
G0 X73 Z0.05 F8000 ; wipe, move close to the bed
M73 Q0 S203
G0 X76 Z0.2 F8000 ; wipe, move quickly away from the bed
G1 E-0.8 F2400 ; retract


M591 R ; restore stuck detection
G92 E0 ; reset extruder position
G21 ; set units to millimeters
G90 ; use absolute coordinates
M83 ; use relative distances for extrusion

M572 S0.036 ; Pressure advance


M142 S36 ; set heatbreak target temp
M107
;LAYER_CHANGE
;Z:0.2
;HEIGHT:0.2
G1 Z.8 F720
M486 S0
G1 X225.577 Y132.114 F24000
G1 Z.2 F720
G1 E.8 F1500
M204 P500
;TYPE:Perimeter
;WIDTH:0.499999
G1 F2400
G1 X224.968 Y132.164 E.02322
G1 X175.818 Y132.163 E1.86801
G1 X174.972 Y132.076 E.03232
G1 X174.084 Y131.836 E.03496
G3 X173.082 Y131.347 I4.265 J-10.009 E.04239
G1 X172.495 Y130.923 E.02752
G1 X171.854 Y130.276 E.03461
G3 X171.268 Y129.459 I5.265 J-4.393 E.03825
G1 X170.914 Y128.711 E.03145
G1 X170.705 Y128.043 E.0266
G1 X170.592 Y127.245 E.03063
G1 X170.559 Y126.167 E.04099
G1 X170.563 Y88.393 E1.43565
G1 X170.696 Y87.407 E.03781
G1 X171.03 Y86.41 E.03996
G1 X171.488 Y85.587 E.0358
G1 X172.146 Y84.796 E.0391
G1 X172.862 Y84.198 E.03546
G1 X173.767 Y83.692 E.03941
G1 X174.766 Y83.366 E.03994
G1 X175.854 Y83.236 E.04164
G1 X225.026 Y83.237 E1.86884
G3 X226.376 Y83.44 I-.324 J6.743 E.05197
G1 X227.235 Y83.764 E.03489
G1 X227.939 Y84.168 E.03085
G1 X228.731 Y84.83 E.03923
G1 X229.187 Y85.35 E.02629
G1 X229.718 Y86.208 E.03835
G1 X229.991 Y86.851 E.02655
G1 X230.226 Y87.833 E.03838
G1 X230.286 Y88.554 E.0275
G1 X230.285 Y126.904 E1.45754
G3 X230.111 Y128.143 I-6.848 J-.325 E.04762
G1 X229.758 Y129.11 E.03912
G1 X229.353 Y129.818 E.031
G1 X228.698 Y130.604 E.03889
G1 X227.883 Y131.267 E.03993
G3 X226.67 Y131.869 I-3.4 J-5.326 E.05157
G1 X225.689 Y132.105 E.03835
G1 X225.637 Y132.109 E.00198
M204 P2500
M204 T5000
G1 X225.521 Y131.664 F24000
M204 P500
G1 F2400
G1 X224.949 Y131.707 E.0218
G1 X175.818 Y131.706 E1.86729
G1 X175.023 Y131.622 E.03038
G1 X174.211 Y131.397 E.03202
G3 X173.35 Y130.977 I5.387 J-12.128 E.03642
G1 X172.763 Y130.552 E.02754
G1 X172.185 Y129.962 E.03139
G3 X171.681 Y129.263 I5.43 J-4.454 E.03277
G1 X171.327 Y128.515 E.03145
G1 X171.144 Y127.916 E.0238
G1 X171.046 Y127.189 E.02788
G1 X171.016 Y126.167 E.03886
G1 X171.02 Y88.393 E1.43565
G1 X171.148 Y87.474 E.03526
G1 X171.46 Y86.564 E.03656
G1 X171.883 Y85.817 E.03263
G1 X172.492 Y85.094 E.03593
G1 X173.148 Y84.555 E.03227
G1 X173.983 Y84.095 E.03623
G1 X174.899 Y83.804 E.03653
G1 X175.882 Y83.693 E.0376
G1 X225.026 Y83.694 E1.86778
G3 X226.281 Y83.887 I-.306 J6.169 E.04834
G1 X227.066 Y84.189 E.03197
G1 X227.704 Y84.56 E.02805
G1 X228.433 Y85.176 E.03627
G1 X228.837 Y85.644 E.0235
G1 X229.326 Y86.443 E.0356
G1 X229.567 Y87.021 E.0238
G1 X229.78 Y87.933 E.03559
G1 X229.829 Y88.573 E.0244
G1 X229.827 Y126.904 E1.45682
G3 X229.662 Y128.059 I-6.46 J-.336 E.0444
G1 X229.332 Y128.945 E.03593
G1 X228.961 Y129.583 E.02805
G1 X228.352 Y130.305 E.0359
G1 X227.602 Y130.907 E.03655
G3 X226.501 Y131.445 I-3.092 J-4.935 E.04666
G1 X225.589 Y131.659 E.0356
G1 X225.581 Y131.659 E.0003
M204 P2500
M204 T250
G1 X225.466 Y131.214 F24000
M204 T5000
M204 P500
;TYPE:External perimeter
G1 F2400
G1 X224.931 Y131.25 E.02038
G1 X175.818 Y131.249 E1.8666
G1 X175.073 Y131.168 E.02848
G1 X174.339 Y130.958 E.02902
G1 X173.617 Y130.606 E.03053
G1 X173.029 Y130.18 E.0276
G3 X172.204 Y129.233 I4.591 J-4.83 E.04781
G1 X171.754 Y128.349 E.0377
G1 X171.583 Y127.789 E.02225
G1 X171.499 Y127.133 E.02514
G1 X171.473 Y126.167 E.03673
G1 X171.477 Y88.389 E1.4358
G1 X171.601 Y87.541 E.03257
G1 X171.89 Y86.718 E.03315
G1 X172.277 Y86.048 E.02941
G1 X172.838 Y85.393 E.03278
G1 X173.433 Y84.912 E.02908
G1 X174.198 Y84.498 E.03306
G1 X175.032 Y84.241 E.03317
G1 X175.908 Y84.15 E.03347
G1 X225.026 Y84.151 E1.86679
G3 X226.187 Y84.335 I-.294 J5.629 E.04476
G1 X226.897 Y84.614 E.02899
G1 X227.47 Y84.952 E.02528
G1 X228.134 Y85.522 E.03326
G1 X228.487 Y85.938 E.02074
G1 X228.934 Y86.678 E.03286
G1 X229.142 Y87.191 E.02104
G1 X229.334 Y88.033 E.03282
G1 X229.372 Y88.59 E.02122
G1 X229.37 Y126.904 E1.45617
G3 X229.213 Y127.975 I-6.005 J-.336 E.0412
M73 P0 R199
G1 X228.906 Y128.78 E.03274
G1 X228.569 Y129.348 E.0251
G1 X228.006 Y130.007 E.03294
G1 X227.321 Y130.547 E.03315
G3 X226.331 Y131.021 I-2.792 J-4.561 E.04179
G1 X225.525 Y131.204 E.03141
M204 P2500
G1 E-.64 F2100
;WIPE_START
G1 F19200
G1 X225.466 Y131.214 E-.00622
G1 X224.931 Y131.25 E-.05572
G1 X223.987 Y131.25 E-.09806
;WIPE_END
G1 X207.538 Y143.333 Z.556 F24000
G1 X203.037 Y146.64 Z.644
G1 X198.535 Y149.947 Z.712
G1 X194.034 Y153.254 Z.761
G1 X185.031 Y159.868 Z.8
G1 X175.073 Y167.183
G1 Z.2 F720
G1 E.8 F1500
M204 P500
;TYPE:Perimeter
G1 F2400
G1 X175.134 Y166.362 E.03129
G1 X175.39 Y165.444 E.03622
G1 X175.82 Y164.594 E.0362
G1 X176.407 Y163.844 E.0362
G1 X177.129 Y163.222 E.03622
G1 X177.959 Y162.754 E.03621
G3 X178.998 Y162.424 I4.192 J11.419 E.04145
G1 X179.802 Y162.341 E.03072
G1 X180.759 Y162.413 E.03647
G1 X181.677 Y162.668 E.03621
G1 X182.528 Y163.098 E.03624
G1 X183.278 Y163.685 E.0362
G1 X183.899 Y164.408 E.03622
G1 X184.368 Y165.237 E.0362
G1 X184.665 Y166.142 E.0362
G1 X184.78 Y167.088 E.03622
G1 X184.709 Y168.038 E.03621
G1 X184.453 Y168.956 E.03622
G1 X184.024 Y169.806 E.03619
G1 X183.436 Y170.556 E.03622
G1 X182.714 Y171.178 E.03622
G1 X181.884 Y171.646 E.03621
G1 X180.979 Y171.944 E.03621
G1 X180.034 Y172.059 E.03618
G1 X179.084 Y171.987 E.03621
G1 X178.166 Y171.732 E.03621
G1 X177.315 Y171.302 E.03624
G1 X176.565 Y170.715 E.0362
G1 X175.944 Y169.992 E.03622
G1 X175.476 Y169.163 E.03618
G1 X175.178 Y168.258 E.03621
G1 X175.063 Y167.312 E.03622
G1 X175.068 Y167.243 E.00263
M204 P2500
G1 X175.524 Y167.189 F24000
M204 P500
G1 F2400
G1 X175.589 Y166.407 E.02982
G1 X175.827 Y165.577 E.03282
G1 X176.223 Y164.809 E.03284
G1 X176.76 Y164.134 E.03278
G1 X177.419 Y163.576 E.03282
G1 X178.174 Y163.157 E.03282
G1 X178.997 Y162.894 E.03284
G1 X179.847 Y162.796 E.03252
G1 X180.714 Y162.868 E.03306
G1 X181.545 Y163.106 E.03285
G1 X182.312 Y163.501 E.03279
G1 X182.988 Y164.039 E.03284
G1 X183.546 Y164.698 E.03282
G1 X183.965 Y165.453 E.03282
G1 X184.228 Y166.275 E.0328
G1 X184.325 Y167.133 E.03282
G1 X184.254 Y167.993 E.0328
G1 X184.016 Y168.823 E.03282
G1 X183.621 Y169.591 E.03282
G1 X183.083 Y170.266 E.03281
G1 X182.424 Y170.824 E.03282
G1 X181.669 Y171.243 E.03282
G1 X180.847 Y171.506 E.0328
G1 X179.989 Y171.604 E.03282
G1 X179.128 Y171.532 E.03284
G1 X178.299 Y171.294 E.03278
G1 X177.531 Y170.899 E.03282
G1 X176.855 Y170.362 E.03281
G1 X176.297 Y169.703 E.03282
G1 X175.879 Y168.947 E.03283
G1 X175.616 Y168.125 E.0328
G1 X175.518 Y167.267 E.03282
G1 X175.519 Y167.249 E.00069
M204 P2500
M204 T250
G1 X175.975 Y167.194 F24000
M204 T5000
M204 P500
;TYPE:External perimeter
G1 F2400
G1 X176.044 Y166.452 E.02832
G1 X176.265 Y165.71 E.02942
G1 X176.626 Y165.025 E.02943
G1 X177.113 Y164.424 E.0294
G1 X177.709 Y163.929 E.02945
G1 X178.39 Y163.56 E.02944
G1 X179.129 Y163.331 E.0294
G1 X179.892 Y163.251 E.02916
G1 X180.67 Y163.323 E.0297
G1 X181.412 Y163.543 E.02941
G1 X182.097 Y163.904 E.02943
G1 X182.698 Y164.392 E.02942
G1 X183.193 Y164.987 E.02942
G1 X183.561 Y165.668 E.02942
G1 X183.79 Y166.408 E.02944
G1 X183.871 Y167.178 E.02943
G1 X183.799 Y167.948 E.02939
G1 X183.579 Y168.691 E.02945
G1 X183.218 Y169.375 E.02939
G1 X182.73 Y169.977 E.02945
G1 X182.134 Y170.471 E.02942
G1 X181.454 Y170.84 E.0294
G1 X180.714 Y171.069 E.02944
G1 X179.944 Y171.149 E.02942
G1 X179.173 Y171.077 E.02943
G1 X178.431 Y170.857 E.02941
G1 X177.746 Y170.496 E.02943
G1 X177.145 Y170.008 E.02942
G1 X176.651 Y169.413 E.02939
G1 X176.282 Y168.732 E.02944
G1 X176.053 Y167.992 E.02944
G1 X175.976 Y167.254 E.0282
M204 P2500
G1 E-.64 F2100
;WIPE_START
G1 F19200
G1 X175.975 Y167.194 E-.00624
G1 X176.044 Y166.452 E-.07743
G1 X176.253 Y165.748 E-.07633
;WIPE_END
G1 X169.907 Y146.35 Z.556 F24000
G1 X168.17 Y141.041 Z.644
G1 X166.433 Y135.732 Z.712
G1 X164.696 Y130.424 Z.761
G1 X161.223 Y119.806 Z.8
G1 X154.565 Y99.456
G1 Z.2 F720
G1 E.8 F1500
M204 P500
;TYPE:Perimeter
G1 F2400
G3 X129.558 Y107.728 I-11.145 J8.244 E1.98969
G1 X129.573 Y107.048 E.02585
G3 X154.529 Y99.408 I13.847 J.652 E1.29255
M204 P2500
G1 X154.195 Y99.724 F24000
M204 P500
G1 F2400
G3 X130.015 Y107.717 I-10.775 J7.976 E1.92467
G1 X130.03 Y107.059 E.02501
G3 X154.159 Y99.676 I13.39 J.641 E1.2493
M204 P2500
M204 T250
G1 X153.825 Y99.992 F24000
M204 T5000
M204 P500
;TYPE:External perimeter
G1 F2400
G3 X130.472 Y107.706 I-10.405 J7.708 E1.85965
G1 X130.487 Y107.07 E.02418
G3 X153.789 Y99.943 I12.933 J.63 E1.20608
M204 P2500
G1 E-.64 F2100
;WIPE_START
G1 F19200
G1 X153.825 Y99.992 E-.00632
G3 X154.636 Y101.228 I-10.405 J7.708 E-.15368
;WIPE_END
G1 X174.16 Y95.28 Z.556 F24000
G1 X179.503 Y93.652 Z.644
G1 X184.846 Y92.024 Z.712
G1 X190.189 Y90.396 Z.761
G1 X200.876 Y87.14 Z.8
G1 X237.557 Y75.964
G1 Z.2 F720
G1 E.8 F1500
M204 P500
;TYPE:Perimeter
G1 F2400
G1 X237.557 Y198.236 E4.6471
G1 X124.979 Y198.236 E4.27867
G1 X124.408 Y198.18 E.02181
G1 X123.915 Y198.03 E.01959
G1 X123.467 Y197.79 E.01932
G1 X123.012 Y197.408 E.02258
G1 X122.699 Y197.007 E.01933
G1 X122.468 Y196.547 E.01956
G1 X122.328 Y196.043 E.01988
G1 X122.286 Y195.549 E.01884
G1 X122.286 Y78.658 E4.44259
G1 X122.342 Y78.087 E.02181
G1 X122.492 Y77.593 E.01962
G1 X122.731 Y77.145 E.0193
G1 X123.114 Y76.691 E.02257
G1 X123.514 Y76.378 E.0193
G1 X123.975 Y76.146 E.01961
G1 X124.479 Y76.007 E.01987
G1 X124.972 Y75.964 E.01881
G1 X237.497 Y75.964 E4.27666
M204 P2500
G1 X238.015 Y75.507 F24000
M204 P500
G1 F2400
G1 X238.015 Y198.693 E4.68184
G1 X124.957 Y198.693 E4.29691
G1 X124.319 Y198.63 E.02437
G1 X123.739 Y198.454 E.02304
G1 X123.209 Y198.171 E.02284
G1 X122.681 Y197.727 E.02622
G1 X122.311 Y197.253 E.02285
G1 X122.039 Y196.712 E.02301
G1 X121.876 Y196.124 E.02319
G1 X121.829 Y195.569 E.02117
G1 X121.829 Y78.635 E4.44423
G1 X121.891 Y77.997 E.02436
G1 X122.067 Y77.418 E.023
G1 X122.351 Y76.887 E.02289
G1 X122.795 Y76.36 E.02619
G1 X123.269 Y75.99 E.02285
G1 X123.81 Y75.717 E.02303
G1 X124.397 Y75.555 E.02314
G1 X124.953 Y75.507 E.02121
G1 X237.955 Y75.507 E4.29478
M204 P2500
M204 T250
G1 X238.472 Y75.05 F24000
M204 T5000
M204 P500
;TYPE:External perimeter
G1 F2400
G1 X238.472 Y199.15 E4.71658
G1 X124.935 Y199.15 E4.31512
G1 X124.229 Y199.081 E.02696
M73 Q0 S202
G1 X123.564 Y198.879 E.02641
G1 X122.951 Y198.551 E.02642
G1 X122.35 Y198.046 E.02983
G1 X121.923 Y197.499 E.02637
G1 X121.611 Y196.877 E.02645
G1 X121.425 Y196.205 E.0265
G1 X121.372 Y195.589 E.0235
G1 X121.372 Y78.613 E4.44582
G1 X121.441 Y77.908 E.02692
G1 X121.643 Y77.242 E.02645
G1 X121.97 Y76.63 E.02637
G1 X122.476 Y76.029 E.02986
G1 X123.023 Y75.602 E.02637
G1 X123.644 Y75.289 E.02643
G1 X124.316 Y75.103 E.0265
G1 X124.933 Y75.05 E.02354
G1 X238.412 Y75.05 E4.31291
M204 P2500
G1 E-.64 F2100
;WIPE_START
G1 F19200
G1 X238.472 Y75.05 E-.00623
G1 X238.472 Y76.53 E-.15377
;WIPE_END
G1 X236.45 Y76.147 Z.236 F24000
G1 Z.2 F720
G1 E.8 F1500
M204 P500
;TYPE:Solid infill
;WIDTH:0.500289
G1 F6000
G1 X237.169 Y76.866 E.03867
G1 X237.169 Y77.513 E.02461
G1 X236.009 Y76.353 E.06239
G1 X235.362 Y76.353 E.02461
G1 X237.169 Y78.16 E.09719
G1 X237.169 Y78.806 E.02457
G1 X234.715 Y76.353 E.13196
G1 X234.068 Y76.353 E.02461
G1 X237.169 Y79.453 E.16675
G1 X237.169 Y80.1 E.02461
G1 X233.422 Y76.353 E.20153
G1 X232.775 Y76.353 E.02461
G1 X237.169 Y80.747 E.23632
G1 X237.169 Y81.394 E.02461
G1 X232.128 Y76.353 E.27112
G1 X231.481 Y76.353 E.02461
G1 X237.169 Y82.04 E.30589
G1 X237.169 Y82.687 E.02461
G1 X230.834 Y76.353 E.34069
G1 X230.188 Y76.353 E.02457
G1 X237.169 Y83.334 E.37546
G1 X237.169 Y83.981 E.02461
G1 X229.541 Y76.353 E.41026
G1 X228.894 Y76.353 E.02461
G1 X237.169 Y84.628 E.44506
G1 X237.169 Y85.275 E.02461
G1 X228.247 Y76.353 E.47985
G1 X227.6 Y76.353 E.02461
G1 X237.169 Y85.921 E.51462
G1 X237.169 Y86.568 E.02461
G1 X226.953 Y76.353 E.54942
G1 X226.307 Y76.353 E.02457
G1 X237.169 Y87.215 E.58419
G1 X237.169 Y87.862 E.02461
G1 X225.66 Y76.353 E.61899
G1 X225.013 Y76.353 E.02461
G1 X237.169 Y88.509 E.65379
G1 X237.169 Y89.155 E.02457
G1 X224.366 Y76.353 E.68856
G1 X223.719 Y76.353 E.02461
G1 X237.169 Y89.802 E.72336
G1 X237.169 Y90.449 E.02461
G1 X223.073 Y76.353 E.75813
G1 X222.426 Y76.353 E.02461
G1 X237.169 Y91.096 E.79292
G1 X237.169 Y91.743 E.02461
G1 X221.779 Y76.353 E.82772
G1 X221.132 Y76.353 E.02461
G1 X237.169 Y92.39 E.86252
G1 X237.169 Y93.036 E.02457
G1 X229.918 Y85.785 E.38998
G2 X228.99 Y84.54 I-4.517 J2.397 E.05928
G2 X228.144 Y83.838 I-6.875 J7.421 E.04183
G1 X227.712 Y83.58 E.01914
G1 X220.485 Y76.353 E.38869
G1 X219.839 Y76.353 E.02457
G1 X226.584 Y83.098 E.36277
G2 X225.75 Y82.911 I-2.858 J10.8 E.03251
G1 X219.192 Y76.353 E.35271
G1 X218.545 Y76.353 E.02461
G1 X225.041 Y82.849 E.34937
G1 X224.394 Y82.849 E.02461
G1 X217.898 Y76.353 E.34937
G1 X217.251 Y76.353 E.02461
G1 X223.747 Y82.849 E.34937
G1 X223.101 Y82.849 E.02457
G1 X216.604 Y76.353 E.3494
G1 X215.958 Y76.353 E.02457
G1 X222.454 Y82.849 E.34937
G1 X221.807 Y82.849 E.02461
G1 X215.311 Y76.353 E.34937
G1 X214.664 Y76.353 E.02461
G1 X221.16 Y82.849 E.34937
G1 X220.514 Y82.849 E.02457
G1 X214.017 Y76.353 E.3494
